assets/img/main-page/wave-mobile.svg

<svg width="360" height="112" viewBox="0 0 360 112" fill="none" xmlns="http://www.w3.org/2000/svg">
<path d="M639.281 12.6045C582.944 -0.867348 523.218 -1.93625 465.262 1.99642C400.985 6.36268 337.588 17.001 273.733 24.2916C209.668 31.6023 145.367 33.4678 80.9851 27.9923C53.1213 25.6227 25.4334 21.9018 -2.01995 17.1725C-12.8559 15.307 -23.7153 13.1188 -34 9.58951V111.486H665.246V20.4194C656.814 17.2027 647.995 14.6919 639.281 12.6045Z" fill="#00A0E3"/>
<path opacity="0.25" d="M651.243 54.8731C594.577 33.0694 531.755 32.1795 471.031 37.6101C410.062 43.0611 349.995 54.772 288.814 58.6351C225.359 62.6399 161.481 67.8784 97.884 62.9938C68.566 60.7488 39.2363 56.3192 11.3021 48.1782C-4.43575 43.597 -21.2408 37.4281 -34 27.6893V111.486H665.246V60.7588C660.602 58.6452 655.922 56.6732 651.243 54.8731Z" fill="white"/>
<path d="M629.65 98.2696C607.743 92.4295 584.909 89.4892 562.133 87.62C538.771 85.7002 515.244 84.6999 491.811 83.9118C427.288 81.7394 362.706 83.6895 298.195 85.2152C233.425 86.751 168.527 87.8726 103.839 84.0229C74.501 82.2749 44.8458 79.1225 16.8576 71.0494C4.77718 67.5635 -6.81018 63.0268 -18.0688 57.9242C-23.0349 55.671 -28.0126 53.2461 -32.3329 50.1239C-32.9317 49.6895 -33.4834 49.255 -34 48.8205V111.486H665.245C654.104 105.827 641.965 101.553 629.65 98.2696Z" fill="#8CDDFF"/>
<g opacity="0.35">
<path d="M348.956 26.2927C348.745 26.3028 348.534 26.2927 348.311 26.2826C349.343 26.4239 349.554 26.4442 348.944 26.3331C348.041 25.9089 346.681 26.0099 345.673 26.121C344.465 26.2624 344.5 26.2523 345.802 26.1109C345.556 26.1311 345.298 26.1412 345.051 26.1311C344.336 26.0907 344.547 26.121 345.685 26.2321C345.438 26.1917 345.192 26.1311 344.958 26.0604C341.651 25.202 337.618 27.0804 336.844 30.0292C336.035 33.089 337.911 36.0984 341.452 37.0173C343.469 37.5425 346.048 37.7142 348.112 37.1991C350.504 36.6033 352.45 35.0481 353.482 33.0991C354.291 31.5843 354.502 30.0291 353.482 28.5244C352.567 27.1712 350.797 26.2725 348.956 26.2927Z" fill="white"/>
</g>
<g opacity="0.35">
<path d="M-8.09061 52.963C-6.98843 57.8204 1.98141 59.2847 6.61289 60.6682C14.1874 62.9201 21.844 65.0105 29.5475 66.9091C44.978 70.7162 60.643 73.4731 76.519 75.503C108.095 79.5424 140.023 80.7845 171.904 79.1182C180.358 78.6739 180.37 67.2423 171.904 67.7573C140.48 69.6761 108.81 68.9086 77.5977 65.1014C62.4604 63.2534 47.3582 60.749 32.432 57.8911C24.6112 56.3965 16.8256 54.71 9.11037 52.862C4.32646 51.7107 -3.37705 48.5297 -7.7154 51.7107C-8.12579 52.0238 -8.19614 52.5388 -8.09061 52.963Z" fill="white"/>
</g>
</svg>

<svg width="360" height="112" fill="none" xmlns="http://www.w3.org/2000/svg"><path d="M639.281 12.604C582.944-.867 523.218-1.935 465.262 1.996c-64.277 4.367-127.674 15.005-191.529 22.296-64.065 7.31-128.366 9.176-192.748 3.7-27.864-2.37-55.552-6.09-83.005-10.82C-12.856 15.307-23.715 13.12-34 9.59v101.896h699.246V20.419c-8.432-3.216-17.251-5.727-25.965-7.815z" fill="#00A0E3"/><path opacity=".25" d="M651.243 54.873C594.577 33.07 531.755 32.18 471.031 37.61c-60.969 5.451-121.036 17.162-182.217 21.025-63.455 4.005-127.333 9.243-190.93 4.359-29.318-2.245-58.648-6.675-86.582-14.816C-4.436 43.597-21.24 37.428-34 27.69v83.797h699.246V60.759a254.236 254.236 0 00-14.003-5.886z" fill="#fff"/><path d="M629.65 98.27c-21.907-5.84-44.741-8.78-67.517-10.65-23.362-1.92-46.889-2.92-70.322-3.708-64.523-2.173-129.105-.223-193.616 1.303-64.77 1.536-129.668 2.658-194.356-1.192-29.338-1.748-58.993-4.9-86.981-12.974C4.778 67.563-6.81 63.027-18.07 57.924c-4.966-2.253-9.944-4.678-14.264-7.8A29.43 29.43 0 01-34 48.82v62.665h699.245c-11.141-5.659-23.28-9.933-35.595-13.216z" fill="#8CDDFF"/><path d="M348.956 26.293c-.211.01-.422 0-.645-.01 1.032.14 1.243.161.633.05-.903-.424-2.263-.323-3.271-.212-1.208.141-1.173.131.129-.01-.246.02-.504.03-.751.02-.715-.04-.504-.01.634.101a5.733 5.733 0 01-.727-.172c-3.307-.858-7.34 1.02-8.114 3.97-.809 3.059 1.067 6.068 4.608 6.987 2.017.525 4.596.697 6.66.182 2.392-.596 4.338-2.15 5.37-4.1.809-1.515 1.02-3.07 0-4.575-.915-1.353-2.685-2.252-4.526-2.231zM-8.09 52.963c1.102 4.857 10.071 6.322 14.703 7.705a502.548 502.548 0 0022.934 6.241c15.431 3.807 31.096 6.564 46.972 8.594 31.576 4.04 63.504 5.281 95.385 3.615 8.454-.444 8.466-11.876 0-11.36-31.424 1.918-63.094 1.15-94.306-2.657-15.138-1.848-30.24-4.352-45.166-7.21A516.042 516.042 0 019.11 52.862C4.326 51.711-3.377 48.53-7.715 51.711c-.41.313-.481.828-.376 1.252z" fill="#fff" opacity=".35"/></svg>
